packages/gestalt/src/icons/ellipsis.svg

<svg width="24" height="24" xmlns="http://www.w3.org/2000/svg"><path fill="#B5B5B5" d="M12 9c-1.66 0-3 1.34-3 3s1.34 3 3 3 3-1.34 3-3-1.34-3-3-3M3 9c1.66 0 3 1.34 3 3s-1.34 3-3 3-3-1.34-3-3 1.34-3 3-3zm18 0c1.66 0 3 1.34 3 3s-1.34 3-3 3-3-1.34-3-3 1.34-3 3-3z"/></svg>

<svg width="24" height="24" viewBox="0 0 24 24" xmlns="http://www.w3.org/2000/svg"><path fill="#B5B5B5" d="M12.00,9.00 C10.34,9.00 9.00,10.34 9.00,12.00 C9.00,13.66 10.34,15.00 12.00,15.00 C13.66,15.00 15.00,13.66 15.00,12.00 C15.00,10.34 13.66,9.00 12.00,9.00 M3.00,9.00 C4.66,9.00 6.00,10.34 6.00,12.00 C6.00,13.66 4.66,15.00 3.00,15.00 C1.34,15.00 0.00,13.66 0.00,12.00 C0.00,10.34 1.34,9.00 3.00,9.00 Z M21.00,9.00 C22.66,9.00 24.00,10.34 24.00,12.00 C24.00,13.66 22.66,15.00 21.00,15.00 C19.34,15.00 18.00,13.66 18.00,12.00 C18.00,10.34 19.34,9.00 21.00,9.00 Z"/></svg>
